X: 24293
T: Lost In The Loop
R: reel
M: 4/4
K: Gmajor
|:GABc Aeec|Bcde cAA^c|defg agfg|adgd fede|
GABc Aeec|Bcde cAA^c|defg a2dc|1 AeGA cA A2:|2 AeGA cAAe||
|:addg fdd2|eAAc BGGA|adgd fede|GABc Ae e2|
addg fdd2|eAAc BGGB|defg a2dc|AeGA cAAe||
|:a2a2 deag|a3g edeg|adda ddad|GABc Ae e2|
a2a2 deag|a3g edeg|adgd defg|adgd ea a2:|

